svg/fluentui-system-icons/ic_fluent_briefcase_16_filled.svg

<svg width="16" height="16" viewBox="0 0 16 16" fill="none" xmlns="http://www.w3.org/2000/svg">
<path d="M6 3.5V5H10V3.5C10 3.22386 9.77614 3 9.5 3H6.5C6.22386 3 6 3.22386 6 3.5ZM5 5V3.5C5 2.67157 5.67157 2 6.5 2H9.5C10.3284 2 11 2.67157 11 3.5V5H12C13.1046 5 14 5.89543 14 7V7.5C14 8.32843 13.3284 9 12.5 9H9V8.5C9 8.22386 8.77614 8 8.5 8H7.5C7.22386 8 7 8.22386 7 8.5V9H3.5C2.67157 9 2 8.32843 2 7.5V7C2 5.89543 2.89543 5 4 5H5ZM2 9.50018V12C2 13.1046 2.89543 14 4 14H12C13.1046 14 14 13.1046 14 12V9.50018C13.5822 9.81403 13.0628 10 12.5 10H9V10.5C9 10.7761 8.77614 11 8.5 11H7.5C7.22386 11 7 10.7761 7 10.5V10H3.5C2.9372 10 2.41783 9.81403 2 9.50018Z" fill="#212121"/>
</svg>

<svg xmlns="http://www.w3.org/2000/svg" width="16" height="16"><path d="M6 3.5V5h4V3.5a.5.5 0 0 0-.5-.5h-3a.5.5 0 0 0-.5.5ZM5 5V3.5A1.5 1.5 0 0 1 6.5 2h3A1.5 1.5 0 0 1 11 3.5V5h1a2 2 0 0 1 2 2v.5A1.5 1.5 0 0 1 12.5 9H9v-.5a.5.5 0 0 0-.5-.5h-1a.5.5 0 0 0-.5.5V9H3.5A1.5 1.5 0 0 1 2 7.5V7a2 2 0 0 1 2-2h1ZM2 9.5V12a2 2 0 0 0 2 2h8a2 2 0 0 0 2-2V9.5c-.418.314-.937.5-1.5.5H9v.5a.5.5 0 0 1-.5.5h-1a.5.5 0 0 1-.5-.5V10H3.5A2.489 2.489 0 0 1 2 9.5Z"/></svg>
